X: 14999
T: Gentle Maiden, The
R: waltz
M: 3/4
K: Gmajor
G2 A2 G2|F2 E2 D2|d4 d2|e2 f2 g2|
d2 c2 B2|A4 G2|E6-|E4 F2|
G2 A2 G2|F2 E2 D2|d4 d2|e2 f2 g2|
d2 c2 B2|A4 G2|G6-|G4:|
d2 e2 f2|g4 g2|g6|g2 f2 e2|
d2 c2 B2|A4 G2|E6-|E4 A2|
G2 A2 G2|F2 E2 D2|d4 d2|
e2 f2 g2|d2 c2 B2|A4 G2|G6-|G4:|

